App/assets/icons/calendar-range.svg

<?xml version="1.0" encoding="UTF-8"?>
<svg id="Livello_1" xmlns="http://www.w3.org/2000/svg" version="1.1" viewBox="0 0 32 32">
  <!-- Generator: Adobe Illustrator 29.5.1, SVG Export Plug-In . SVG Version: 2.1.0 Build 141)  -->
  <defs>
    <style>
      .st0 {
        fill: #fff;
      }
    </style>
  </defs>
  <path class="st0" d="M10,2V1h-2v4H2v26h28V5h-6V1h-2v4h-12V2ZM4,7h24v22H4V7ZM14,13v2h10v-2h-10ZM8,21v2h10v-2h-10ZM8,13v3h3v-3h-3ZM24,21h-3v3h3v-3Z"/>
</svg>

<svg width="32" height="32" viewBox="0 0 32 32" fill="none" xmlns="http://www.w3.org/2000/svg">
<rect x="0.5" y="0.5" width="31" height="31" stroke="black"/>
<path d="M10 2V1H8V5H2V31H30V5H24V1H22V5H10V2ZM4 7H28V29H4V7ZM14 13V15H24V13H14ZM8 21V23H18V21H8ZM8 13V16H11V13H8ZM24 21H21V24H24V21Z" fill="white"/>
</svg>
